X: 31293
T: COTILLION No. 23. JIM CROW SETT tune 7
T: O'Carolan's Concerto
C: Turlough O'Carolan
%R: reel
B: Elias Howe "The Musician's Companion" Part 3 1844 p.129 #3
S: http://imslp.org/wiki/The_Musician's_Companion_(Howe,_Elias)
Z: 2015 John Chambers <jc:trillian.mit.edu>
N: Added rest between the strains to fix the rhythm.
M: 2/4
L: 1/16
K: D
% - - - - - - - - - - - - - - - - - - - - - - - - - - - - -
(3(ABc) |\
d2dd d2cB | ABGA F2A2 | E2A2 D2A2 | Bcde dcBA |\
d2a2 fgaf | efgf fgaf | gabg fdfa | gfed dcBA |
BdBd gBgB | AdAd fAfA | GBGB efed | c2Bc A3G |\
FGAF EFGE | FGAF GABG | B2d2 fedc | d6 z2 H|]
d2b2 agfe | d2a2 c2a2 | B2gB ABcd | edBA (d2df) |\
edcB caaa | Bggg Afff | edcB caaa | bgbg afaf |
edcB cABG | AFGE DAFA | DAFA GEBE | GEBE FAdc |\
BAGF EFGA | Bcde A2d2 | f2e2d2c2 | d6 "^D.C."y|]
% - - - - - - - - - - Dance description - - - - - - - - - -
%%begintext align
%% First 2 give right hand across,
%% left hand back,
%% form a line,
%% balance 4 in a line,
%% half promenade,
%% ladies forward and back,
%% gentlemen the same,
%% balance 4, &c.
%%endtext
% - - - - - - - - - - - - - - - - - - - - - - - - - - - - -
%%sep 1 1 300
